X:1
T:Emigrant's -- Reel
R:reel
B:Ryan's Mammoth Collection
N: 287
O:SCOTCH
Z: Contributed by Ray Davies,  ray:davies99.freeserve.co.uk
M:C|
L:1/8
K:F
vAccB dfcf | dfcf (eg)g2 | AccB dfcf | BGcB (AF)F2 |
 AccB dfcf | dfcf (eg)g2 | AccB dfcf | BGcB (AF)F2:|
|:vafef dfcf | afef (eg)g2 | afef dfcf | BGcB (AF)F2 |
   afef dfcf | afef (eg)g2 | ((3agf)((3gfe) ((3fed)((3edc) |\
((3Bcd) (cB) (AF)F2 :|
